assets/logos/icons/wow.svg

<svg height="24" viewBox="0 0 24 24" width="24" xmlns="http://www.w3.org/2000/svg"><path d="m5.99999995 12.5h-2v-2h-2v8h2v1h2v-2h2v-9.00000002h-2zm14.00000005-8.00000004v4h-2v-2h-2v8.00000004h2v1h2v-2h2v-9.00000004zm-6 6.00000004h-3-2.00000002v2 5h1v1h5.00000002v-2-5h-1zm-1 6h-2v-4h2z" fill="#492f5c" fill-rule="evenodd"/></svg>

<svg xmlns="http://www.w3.org/2000/svg" xmlns:xlink="http://www.w3.org/1999/xlink" width="24" height="24" viewBox="0 0 24 24">
  <defs>
    <path id="wow-a" d="M5.99999995,12.5 L3.99999995,12.5 L3.99999995,10.5 L1.99999995,10.5 L1.99999995,18.5 L3.99999995,18.5 L3.99999995,19.5 L5.99999995,19.5 L5.99999995,17.5 L7.99999995,17.5 L7.99999995,8.49999998 L5.99999995,8.49999998 L5.99999995,12.5 Z M20,4.49999996 L20,8.49999996 L18,8.49999996 L18,6.49999996 L16,6.49999996 L16,14.5 L18,14.5 L18,15.5 L20,15.5 L20,13.5 L22,13.5 L22,4.49999996 L20,4.49999996 Z M14,10.5 L11,10.5 L8.99999998,10.5 L8.99999998,12.5 L8.99999998,17.5 L9.99999998,17.5 L9.99999998,18.5 L15,18.5 L15,16.5 L15,11.5 L14,11.5 L14,10.5 Z M13,16.5 L11,16.5 L11,12.5 L13,12.5 L13,16.5 Z"/>
  </defs>
  <use fill="#492F5C" fill-rule="evenodd" xlink:href="#wow-a"/>
</svg>
